X:5337
T:Quand on fait le meme chemin (V. Scotto)
O:england
C:Esbelin/Pauvert
M:3/4
L:1/4
K:C
G|e>de|fdf|ede|d2e|c2c|\
cBc|dec|d3|ggg|a3|fff|
e2e|ed>e|dcB|c3-|c2:|\
g|fdg|ecg|fdg|ecd/e/|f2f|ede|
d3-|d2G|g2g|fga|g3|ecd|\
e2e|gfe|d3-|d2G|d2^c|
def|e2d|c2B|ABc|ABc|\
d3-|d2g|g2g|fga|g3|ecd|
e2e|gfe|d3-|d2d/e/|f2g|\
a2a|g3|e2c|e2c|dcB|c3-|c2||


